Newaita-dark/mimetypes/22/x-office-address-book.svg

<?xml version="1.0" encoding="UTF-8"?>
<svg xmlns="http://www.w3.org/2000/svg" xmlns:xlink="http://www.w3.org/1999/xlink" width="22px" height="22px" viewBox="0 0 22 22" version="1.1">
<defs>
<linearGradient id="linear0" gradientUnits="userSpaceOnUse" x1="254" y1="233.5" x2="254" y2="254.666672" gradientTransform="matrix(0.0429729,0,0,0.0429729,-0.00000262285,9.239165)">
<stop offset="0" style="stop-color:rgb(0%,0%,0%);stop-opacity:0.27451;"/>
<stop offset="1" style="stop-color:rgb(0%,0%,0%);stop-opacity:0;"/>
</linearGradient>
<radialGradient id="radial0" gradientUnits="userSpaceOnUse" cx="450.908936" cy="189.579361" fx="450.908936" fy="189.579361" r="21.166656" gradientTransform="matrix(0.000000119742,-0.0537161,-0.0966889,-0.0000000698078,34.475434,43.721791)">
<stop offset="0" style="stop-color:rgb(0%,0%,0%);stop-opacity:0.313726;"/>
<stop offset="0.222222" style="stop-color:rgb(0%,0%,0%);stop-opacity:0.27451;"/>
<stop offset="1" style="stop-color:rgb(0%,0%,0%);stop-opacity:0;"/>
</radialGradient>
<radialGradient id="radial1" gradientUnits="userSpaceOnUse" cx="450.908936" cy="189.579361" fx="450.908936" fy="189.579361" r="21.166656" gradientTransform="matrix(-0.000000119742,0.0537161,0.0966889,0.0000000698078,-12.645221,-5.175143)">
<stop offset="0" style="stop-color:rgb(0%,0%,0%);stop-opacity:0.313726;"/>
<stop offset="0.222222" style="stop-color:rgb(0%,0%,0%);stop-opacity:0.27451;"/>
<stop offset="1" style="stop-color:rgb(0%,0%,0%);stop-opacity:0;"/>
</radialGradient>
<radialGradient id="radial2" gradientUnits="userSpaceOnUse" cx="450.908936" cy="189.579361" fx="450.908936" fy="189.579361" r="21.166656" gradientTransform="matrix(-0.000000119742,-0.0537161,0.0966889,-0.0000000698078,-12.645221,43.721791)">
<stop offset="0" style="stop-color:rgb(0%,0%,0%);stop-opacity:0.313726;"/>
<stop offset="0.222222" style="stop-color:rgb(0%,0%,0%);stop-opacity:0.27451;"/>
<stop offset="1" style="stop-color:rgb(0%,0%,0%);stop-opacity:0;"/>
</radialGradient>
<radialGradient id="radial3" gradientUnits="userSpaceOnUse" cx="450.908936" cy="189.579361" fx="450.908936" fy="189.579361" r="21.166656" gradientTransform="matrix(0.000000119742,0.0537161,-0.0966889,0.0000000698078,34.475433,-5.175142)">
<stop offset="0" style="stop-color:rgb(0%,0%,0%);stop-opacity:0.313726;"/>
<stop offset="0.222222" style="stop-color:rgb(0%,0%,0%);stop-opacity:0.27451;"/>
<stop offset="1" style="stop-color:rgb(0%,0%,0%);stop-opacity:0;"/>
</radialGradient>
<linearGradient id="linear1" gradientUnits="userSpaceOnUse" x1="306.916656" y1="-25.791676" x2="305.954559" y2="-141.414581" gradientTransform="matrix(0.0518029,0,0,0.149471,-4.024634,23.128427)">
<stop offset="0" style="stop-color:rgb(73.725492%,66.666669%,64.313728%);stop-opacity:1;"/>
<stop offset="1" style="stop-color:rgb(84.313726%,80.000001%,78.431374%);stop-opacity:1;"/>
</linearGradient>
<linearGradient id="linear2" gradientUnits="userSpaceOnUse" x1="165.484848" y1="-25.791672" x2="165.484848" y2="-141.414581" gradientTransform="matrix(4.556143,0,0,13.146184,-353.972656,2034.180176)">
<stop offset="0" style="stop-color:rgb(55.29412%,43.137255%,38.82353%);stop-opacity:1;"/>
<stop offset="1" style="stop-color:rgb(63.137257%,53.333336%,49.803922%);stop-opacity:1;"/>
</linearGradient>
<linearGradient id="linear3" gradientUnits="userSpaceOnUse" x1="920" y1="1786.046997" x2="920" y2="266.046936" gradientTransform="matrix(0.264583,0,0,0.264583,31.750002,-239.058243)">
<stop offset="0" style="stop-color:rgb(55.29412%,43.137255%,38.82353%);stop-opacity:1;"/>
<stop offset="1" style="stop-color:rgb(63.137257%,53.333336%,49.803922%);stop-opacity:1;"/>
</linearGradient>
</defs>
<g id="surface1">
<path style=" stroke:none;fill-rule:nonzero;fill:url(#linear0);" d="M 5.457031 19.273438 L 16.371094 19.273438 L 16.371094 20.183594 L 5.457031 20.183594 Z M 5.457031 19.273438 "/>
<path style=" stroke:none;fill-rule:nonzero;fill:url(#radial0);" d="M 16.371094 19.273438 L 18.191406 19.273438 L 18.191406 18.363281 L 16.371094 18.363281 Z M 16.371094 19.273438 "/>
<path style=" stroke:none;fill-rule:nonzero;fill:url(#radial1);" d="M 5.457031 19.273438 L 3.636719 19.273438 L 3.636719 20.183594 L 5.457031 20.183594 Z M 5.457031 19.273438 "/>
<path style=" stroke:none;fill-rule:nonzero;fill:url(#radial2);" d="M 5.457031 19.273438 L 3.636719 19.273438 L 3.636719 18.363281 L 5.457031 18.363281 Z M 5.457031 19.273438 "/>
<path style=" stroke:none;fill-rule:nonzero;fill:url(#radial3);" d="M 16.371094 19.273438 L 18.191406 19.273438 L 18.191406 20.183594 L 16.371094 20.183594 Z M 16.371094 19.273438 "/>
<path style=" stroke:none;fill-rule:nonzero;fill:url(#linear1);" d="M 4.546875 1.992188 L 17.28125 1.992188 C 17.785156 1.992188 18.191406 2.398438 18.191406 2.902344 L 18.191406 18.363281 C 18.191406 18.867188 17.785156 19.273438 17.28125 19.273438 L 4.546875 19.273438 C 4.046875 19.273438 3.636719 18.867188 3.636719 18.363281 L 3.636719 2.902344 C 3.636719 2.398438 4.046875 1.992188 4.546875 1.992188 Z M 4.546875 1.992188 "/>
<path style="fill-rule:nonzero;fill:url(#linear2);stroke-width:11.338583;stroke-linecap:round;stroke-linejoin:miter;stroke:rgb(12.941177%,12.941177%,12.941177%);stroke-opacity:1;stroke-miterlimit:4;" d="M 399.904566 175.215918 C 355.585246 175.215918 319.854941 210.946223 319.854941 255.265544 L 319.854941 1615.078494 C 319.854941 1659.397814 355.585246 1695.128119 399.904566 1695.128119 L 520.150785 1695.128119 L 520.150785 175.215918 Z M 399.904566 175.215918 " transform="matrix(0.0113699,0,0,0.0113699,0,0)"/>
<path style=" stroke:none;fill-rule:nonzero;fill:rgb(0%,0%,0%);fill-opacity:0.196078;" d="M 4.546875 19.222656 C 4.042969 19.222656 3.636719 18.816406 3.636719 18.3125 L 3.636719 18.199219 C 3.636719 18.703125 4.042969 19.109375 4.546875 19.109375 L 17.28125 19.109375 C 17.785156 19.109375 18.191406 18.703125 18.191406 18.199219 L 18.191406 18.3125 C 18.191406 18.816406 17.785156 19.222656 17.28125 19.222656 Z M 4.546875 19.222656 "/>
<path style=" stroke:none;fill-rule:nonzero;fill:rgb(100%,100%,100%);fill-opacity:0.392157;" d="M 4.546875 2.042969 C 4.042969 2.042969 3.636719 2.449219 3.636719 2.953125 L 3.636719 3.066406 C 3.636719 2.5625 4.042969 2.15625 4.546875 2.15625 L 17.28125 2.15625 C 17.785156 2.15625 18.191406 2.5625 18.191406 3.066406 L 18.191406 2.953125 C 18.191406 2.449219 17.785156 2.042969 17.28125 2.042969 Z M 4.546875 2.042969 "/>
<path style=" stroke:none;fill-rule:nonzero;fill:rgb(12.941177%,12.941177%,12.941177%);fill-opacity:1;" d="M 4.546875 1.925781 C 4.007812 1.925781 3.574219 2.363281 3.574219 2.902344 L 3.574219 18.363281 C 3.574219 18.902344 4.007812 19.335938 4.546875 19.335938 L 17.28125 19.335938 C 17.820312 19.335938 18.257812 18.902344 18.257812 18.363281 L 18.257812 2.902344 C 18.257812 2.363281 17.820312 1.925781 17.28125 1.925781 Z M 4.546875 2.054688 L 17.28125 2.054688 C 17.75 2.054688 18.128906 2.429688 18.128906 2.902344 L 18.128906 18.363281 C 18.128906 18.832031 17.75 19.207031 17.28125 19.207031 L 4.546875 19.207031 C 4.078125 19.207031 3.703125 18.832031 3.703125 18.363281 L 3.703125 2.902344 C 3.703125 2.429688 4.078125 2.054688 4.546875 2.054688 Z M 4.546875 2.054688 "/>
<path style="fill-rule:nonzero;fill:url(#linear3);stroke-width:3.362691;stroke-linecap:round;stroke-linejoin:round;stroke:rgb(12.941177%,12.941177%,12.941177%);stroke-opacity:1;stroke-miterlimit:4;" d="M 280.427766 -55.106178 C 259.975174 -55.106178 243.431299 -38.653204 243.431299 -18.109711 C 243.431299 2.433782 259.975174 18.977656 280.427766 18.977656 C 300.971259 18.977656 317.515133 2.433782 317.515133 -18.109711 C 317.515133 -38.653204 300.971259 -55.106178 280.427766 -55.106178 Z M 254.430249 32.430917 C 225.614818 39.066647 204.344122 56.428625 201.435309 77.42662 C 201.162608 78.153823 201.071708 78.971927 201.071708 79.790031 L 201.071708 85.062255 C 201.071708 89.516375 204.616824 93.061491 208.980043 93.061491 L 351.875488 93.061491 C 356.329609 93.061491 359.874725 89.516375 359.874725 85.062255 L 359.874725 79.790031 C 359.874725 78.971927 359.692924 78.153823 359.511123 77.42662 C 356.60231 56.428625 335.331614 39.066647 306.516184 32.430917 C 298.97145 37.248639 290.063209 40.066551 280.427766 40.066551 C 270.883223 40.066551 261.884082 37.248639 254.430249 32.430917 Z M 254.430249 32.430917 " transform="matrix(0.0429729,0,0,0.0429729,0,9.239163)"/>
</g>
</svg>

<svg xmlns="http://www.w3.org/2000/svg" width="22pt" height="22pt" viewBox="0 0 22 22"><defs><linearGradient id="a" gradientUnits="userSpaceOnUse" x1="254" y1="233.5" x2="254" y2="254.667" gradientTransform="matrix(.04297 0 0 .04297 0 9.24)"><stop offset="0" stop-opacity=".275"/><stop offset="1" stop-opacity="0"/></linearGradient><radialGradient id="b" gradientUnits="userSpaceOnUse" cx="450.909" cy="189.579" fx="450.909" fy="189.579" r="21.167" gradientTransform="matrix(0 -.05372 -.09669 0 34.475 43.722)"><stop offset="0" stop-opacity=".314"/><stop offset=".222" stop-opacity=".275"/><stop offset="1" stop-opacity="0"/></radialGradient><radialGradient id="c" gradientUnits="userSpaceOnUse" cx="450.909" cy="189.579" fx="450.909" fy="189.579" r="21.167" gradientTransform="matrix(0 .05372 .09669 0 -12.645 -5.175)"><stop offset="0" stop-opacity=".314"/><stop offset=".222" stop-opacity=".275"/><stop offset="1" stop-opacity="0"/></radialGradient><radialGradient id="d" gradientUnits="userSpaceOnUse" cx="450.909" cy="189.579" fx="450.909" fy="189.579" r="21.167" gradientTransform="matrix(0 -.05372 .09669 0 -12.645 43.722)"><stop offset="0" stop-opacity=".314"/><stop offset=".222" stop-opacity=".275"/><stop offset="1" stop-opacity="0"/></radialGradient><radialGradient id="e" gradientUnits="userSpaceOnUse" cx="450.909" cy="189.579" fx="450.909" fy="189.579" r="21.167" gradientTransform="matrix(0 .05372 -.09669 0 34.475 -5.175)"><stop offset="0" stop-opacity=".314"/><stop offset=".222" stop-opacity=".275"/><stop offset="1" stop-opacity="0"/></radialGradient><linearGradient id="f" gradientUnits="userSpaceOnUse" x1="306.917" y1="-25.792" x2="305.955" y2="-141.415" gradientTransform="matrix(.0518 0 0 .14947 -4.025 23.128)"><stop offset="0" stop-color="#bcaaa4"/><stop offset="1" stop-color="#d7ccc8"/></linearGradient><linearGradient id="g" gradientUnits="userSpaceOnUse" x1="165.485" y1="-25.792" x2="165.485" y2="-141.415" gradientTransform="matrix(4.55614 0 0 13.14618 -353.973 2034.18)"><stop offset="0" stop-color="#8d6e63"/><stop offset="1" stop-color="#a1887f"/></linearGradient><linearGradient id="h" gradientUnits="userSpaceOnUse" x1="920" y1="1786.047" x2="920" y2="266.047" gradientTransform="matrix(.26458 0 0 .26458 31.75 -239.058)"><stop offset="0" stop-color="#8d6e63"/><stop offset="1" stop-color="#a1887f"/></linearGradient></defs><path d="M5.457 19.273h10.914v.91H5.457zm0 0" fill="url(#a)"/><path d="M16.371 19.273h1.82v-.91h-1.82zm0 0" fill="url(#b)"/><path d="M5.457 19.273h-1.82v.91h1.82zm0 0" fill="url(#c)"/><path d="M5.457 19.273h-1.82v-.91h1.82zm0 0" fill="url(#d)"/><path d="M16.371 19.273h1.82v.91h-1.82zm0 0" fill="url(#e)"/><path d="M4.547 1.992H17.28c.504 0 .91.406.91.91v15.461c0 .504-.406.91-.91.91H4.547c-.5 0-.91-.406-.91-.91V2.903c0-.505.41-.91.91-.91zm0 0" fill="url(#f)"/><path d="M399.905 175.216c-44.32 0-80.05 35.73-80.05 80.05v1359.812c0 44.32 35.73 80.05 80.05 80.05H520.15V175.216zm0 0" transform="rotate(.24) scale(.01137)" fill="url(#g)" stroke-width="11.339" stroke-linecap="round" stroke="#212121"/><path d="M4.547 19.223a.909.909 0 0 1-.91-.91v-.114c0 .504.406.91.91.91H17.28c.504 0 .91-.406.91-.91v.113c0 .504-.406.91-.91.91zm0 0" fill-opacity=".196"/><path d="M4.547 2.043a.909.909 0 0 0-.91.91v.113c0-.503.406-.91.91-.91H17.28c.504 0 .91.406.91.91v-.113a.909.909 0 0 0-.91-.91zm0 0" fill="#fff" fill-opacity=".392"/><path d="M4.547 1.926a.974.974 0 0 0-.973.976v15.461c0 .54.434.973.973.973H17.28c.54 0 .977-.434.977-.973V2.903a.977.977 0 0 0-.977-.977zm0 .129H17.28c.469 0 .848.375.848.847v15.461a.844.844 0 0 1-.848.844H4.547a.84.84 0 0 1-.844-.844V2.903c0-.473.375-.848.844-.848zm0 0" fill="#212121"/><path d="M280.428-55.106c-20.453 0-36.997 16.453-36.997 36.996 0 20.544 16.544 37.088 36.997 37.088 20.543 0 37.087-16.544 37.087-37.088 0-20.543-16.544-36.996-37.087-36.996zM254.43 32.43c-28.815 6.636-50.086 23.998-52.995 44.996-.272.727-.363 1.545-.363 2.363v5.272c0 4.454 3.545 8 7.908 8h142.895c4.455 0 8-3.546 8-8V79.79c0-.818-.182-1.636-.364-2.363-2.909-20.998-24.18-38.36-52.995-44.996-7.545 4.818-16.453 7.636-26.088 7.636-9.545 0-18.544-2.818-25.998-7.636zm0 0" transform="matrix(.04297 0 0 .04297 0 9.24)" fill="url(#h)" stroke-width="3.363" stroke-linecap="round" stroke-linejoin="round" stroke="#212121"/></svg>
